X: 27165
T: Miss McLeod's
R: reel
M: 4/4
K: Gmajor
|:G2 B/A/G dG c/B/A|GBBA BcBA|G2 B/A/G dG B/A/G|A2 AG A/B/c BA|
G2 B/A/G dG c/B/A|GBBA B3 d|e/f/g ed B/c/d ef|gedB A/B/c BA:|
|:G2 gd efgd|B2 BA BcBA|G2 gd efgd|e/f/g ab agef|
g2 bg efge|dBBA B2 B/c/d|e/f/g ed B/c/d ef|gedB A/B/c BA:|
|:g/a/g fg efge|dBBA BcBA|g/a/g fg efgd|AF ~F2 DFAd|
g/a/g fg ecge|d/c/B c/B/A Bcdg|e/f/g ed B/c/d ef|g/f/e dB A/B/c BA:|

